assets/components_previews/forms/dark/debounce.svg

<svg xmlns="http://www.w3.org/2000/svg" width="320" height="232" fill="none" viewBox="0 0 320 232"><path fill="#5F43D0" fill-rule="evenodd" d="M165.118 103.222a1 1 0 0 0 .104 1.411l1.84 1.585c.366.316.587.508.728.657-.141.149-.362.341-.728.657l-1.84 1.586a1 1 0 0 0 1.306 1.515l1.84-1.586.043-.038c.349-.3.684-.589.923-.859.262-.296.541-.713.541-1.275s-.279-.979-.541-1.275c-.239-.27-.574-.558-.923-.859l-.043-.038-1.84-1.585a1 1 0 0 0-1.41.104m-2.486 0a1 1 0 0 1-.104 1.411l-1.84 1.585c-.366.316-.587.508-.728.657.141.149.362.341.728.657l1.84 1.586a1 1 0 0 1-1.306 1.515l-1.84-1.586-.043-.038c-.349-.3-.684-.589-.923-.859-.262-.296-.541-.713-.541-1.275s.279-.979.541-1.275c.239-.27.574-.558.923-.859l.043-.038 1.84-1.585a1 1 0 0 1 1.41.104" clip-rule="evenodd"/><path fill="#5F43D0" d="M154.812 110.522c.982.103.545.103 2.086.103a.978.978 0 0 0 0-1.955c-1.609 0-1.015-.001-1.885-.092-.854-.089-1.337-.256-1.695-.509a3 3 0 0 1-.632-.596c-.255-.323-.425-.756-.517-1.542-.095-.81-.097-1.867-.097-3.391v-2.9c0-.267 0-.906.281-1.378.173-.29.394-.534.622-.658a2.6 2.6 0 0 1 1.233-.312l1.041.036c.38.008.823-.004 1.251-.119a2.42 2.42 0 0 0 1.709-1.709c.115-.428.127-.871.119-1.251l-.036-1.04c0-.469.124-.876.341-1.254.127-.22.348-.423.653-.6.462-.269 1.015-.271 1.353-.273l.993-.002c1.834 0 2.501.014 3.005.19.872.308 1.538.95 1.848 1.735.078.197.133.455.162.903.03.457.031 1.04.031 1.88v5.113a.974.974 0 1 0 1.947 0v-5.146c0-.8 0-1.447-.035-1.975-.036-.545-.111-1.03-.294-1.495-.529-1.34-1.638-2.373-3.014-2.858-.859-.303-2.331-.303-3.886-.302-2.84 0-4.526 0-5.909.487-2.22.782-3.994 2.444-4.837 4.58-.281.712-.406 1.477-.466 2.394-.059.9-.059 2.013-.059 3.432v2.583c0 1.448 0 2.621.11 3.558.114.974.357 1.811.927 2.53a5 5 0 0 0 1.034.978c.745.526 1.606.75 2.616.855" opacity=".4"/><path fill="#5F43D0" d="M85.125 138v-8.8h1.952v1.776h.544l-.592.48q0-1.12.656-1.76.672-.656 1.824-.656 1.344 0 2.096.864t.752 2.416v.832h-2v-.736q0-.816-.416-1.232t-1.184-.416q-.784 0-1.216.48-.416.48-.416 1.36V138zm7.978 0 3.072-4.544-2.864-4.256h2.256l1.36 2.16q.128.192.224.432.112.24.176.384.064-.144.176-.384.113-.24.224-.432l1.36-2.16h2.272l-2.864 4.256L101.55 138h-2.272l-1.52-2.416a4 4 0 0 1-.24-.448 6 6 0 0 0-.192-.384l-.176.384q-.112.24-.24.448L95.375 138zm13.178.16q-.672 0-1.088-.4-.4-.416-.4-1.072 0-.672.4-1.072.416-.416 1.088-.416t1.072.416q.416.4.416 1.072 0 .656-.416 1.072-.4.4-1.072.4m8.153 0q-1.28 0-2.08-.912-.784-.912-.784-2.448v-2.384q0-1.552.784-2.464.8-.912 2.08-.912 1.185 0 1.872.752.688.737.688 2.016l-.592-.832h.464l-.064-2.192v-2.464h2V138h-1.952v-1.776h-.448l.576-.832q0 1.28-.688 2.032-.671.736-1.856.736m.752-1.728q.768 0 1.184-.464.432-.464.432-1.312v-2.112q0-.848-.432-1.312-.416-.464-1.184-.464t-1.2.416q-.416.416-.416 1.28v2.272q0 .848.416 1.28.432.416 1.2.416m9.018 1.728q-1.12 0-1.952-.432a3.16 3.16 0 0 1-1.296-1.216q-.448-.8-.448-1.872v-2.08q0-1.072.448-1.856a3.14 3.14 0 0 1 1.296-1.232q.832-.432 1.952-.432 1.104 0 1.92.432.832.432 1.28 1.216.464.768.464 1.808v1.6h-5.44v.608q0 .896.464 1.36.464.448 1.312.448.624 0 1.056-.208.448-.224.528-.64h1.984q-.208 1.136-1.184 1.824-.976.672-2.384.672m1.744-5.2v-.48q0-.912-.448-1.408-.432-.496-1.296-.496t-1.328.512q-.448.496-.448 1.408v.304l3.664-.016zm7.994 5.2q-1.168 0-1.856-.736-.688-.752-.688-2.032l.576.832h-.448V138h-1.952v-11.68h2v2.464l-.064 2.192h.464l-.592.832q0-1.28.688-2.016.703-.752 1.872-.752 1.296 0 2.08.912t.784 2.464v2.384q0 1.536-.784 2.448t-2.08.912m-.752-1.728q.768 0 1.184-.416.432-.432.432-1.28v-2.272q0-.864-.432-1.28-.416-.416-1.184-.416t-1.2.464q-.416.464-.416 1.312v2.112q0 .848.416 1.312.432.464 1.2.464m8.906 1.712q-1.12 0-1.952-.432a3.06 3.06 0 0 1-1.28-1.216q-.448-.8-.448-1.872v-2.048q0-1.087.448-1.872a3.06 3.06 0 0 1 1.28-1.216q.831-.432 1.952-.432 1.136 0 1.952.432.831.432 1.28 1.216.448.784.448 1.872v2.048q0 1.073-.448 1.872a3.07 3.07 0 0 1-1.28 1.216q-.816.432-1.952.432m0-1.744q.8 0 1.232-.432.448-.448.448-1.28v-2.176q0-.848-.448-1.28-.432-.432-1.232-.432-.785 0-1.232.432-.448.432-.448 1.28v2.176q0 .832.448 1.28.447.432 1.232.432m8.953 1.76q-1.68 0-2.64-.928-.96-.944-.96-2.56V129.2h2v5.456q0 .832.416 1.296t1.184.464q.753 0 1.168-.464.432-.464.432-1.296V129.2h2v5.472q0 1.616-.976 2.56-.975.928-2.624.928m5.386-.16v-8.8h1.952v1.68h.544l-.592.464q.017-1.056.672-1.68.656-.624 1.744-.624 1.296 0 2.064.864.784.864.784 2.32V138h-2v-5.536q0-.816-.416-1.248-.416-.448-1.152-.448-.752 0-1.184.448-.416.448-.416 1.28V138zm12.666.16q-1.136 0-1.984-.416a3.2 3.2 0 0 1-1.296-1.2q-.464-.784-.464-1.84v-2.208q0-1.072.464-1.84a3.1 3.1 0 0 1 1.296-1.184q.848-.432 1.984-.432 1.649 0 2.64.864.992.848 1.056 2.32h-1.968q-.048-.689-.512-1.056-.464-.384-1.216-.384-.816 0-1.28.448-.464.432-.464 1.248v2.224q0 .816.464 1.264t1.28.448q.752 0 1.216-.368.464-.384.512-1.072h1.968q-.065 1.472-1.056 2.336-.992.848-2.64.848m8.826 0q-1.12 0-1.952-.432a3.16 3.16 0 0 1-1.296-1.216q-.448-.8-.448-1.872v-2.08q0-1.072.448-1.856a3.14 3.14 0 0 1 1.296-1.232q.831-.432 1.952-.432 1.104 0 1.92.432.831.432 1.28 1.216.464.768.464 1.808v1.6h-5.44v.608q0 .896.464 1.36.463.448 1.312.448.624 0 1.056-.208.447-.224.528-.64h1.984q-.209 1.136-1.184 1.824-.977.672-2.384.672m1.744-5.2v-.48q0-.912-.448-1.408-.432-.496-1.296-.496t-1.328.512q-.448.496-.448 1.408v.304l3.664-.016zm3.353 7.248V138.4h7.68v1.808zm9.21-2.208v-1.808h3.008v-5.184h-2.688V129.2h4.688v6.992h2.704V138zm3.872-10.272q-.607 0-.96-.304-.352-.32-.352-.848t.352-.832q.353-.32.96-.32t.96.32q.352.304.352.832t-.352.848q-.353.304-.96.304M201.204 138v-8.8h1.952v1.68h.544l-.592.464q.017-1.056.672-1.68.656-.624 1.744-.624 1.296 0 2.064.864.784.864.784 2.32V138h-2v-5.536q0-.816-.416-1.248-.415-.448-1.152-.448-.752 0-1.184.448-.416.448-.416 1.28V138zm8.954 2.88V129.2h1.952v1.776h.448l-.576.832q0-1.28.688-2.016.687-.752 1.856-.752.848 0 1.488.432.655.416 1.008 1.168.368.752.368 1.76v2.384q0 1.008-.368 1.776a2.86 2.86 0 0 1-.992 1.184q-.64.416-1.504.416-1.169 0-1.856-.752-.688-.751-.688-2.016l.576.848h-.464l.064 2.176v2.464zm3.616-4.448q.767 0 1.184-.416.432-.432.432-1.28v-2.272q0-.864-.432-1.28-.417-.416-1.184-.416-.768 0-1.2.464-.416.464-.416 1.312v2.112q0 .848.416 1.312.432.464 1.2.464m8.905 1.728q-1.68 0-2.64-.928-.96-.944-.96-2.56V129.2h2v5.456q0 .832.416 1.296t1.184.464q.753 0 1.168-.464.432-.464.432-1.296V129.2h2v5.472q0 1.616-.976 2.56-.975.928-2.624.928m9.834-.16q-1.232 0-1.968-.704-.72-.72-.72-1.936v-4.352h-2.432V129.2h2.432v-2.48h2.016v2.48h3.504v1.808h-3.504v4.304a.98.98 0 0 0 .208.64q.224.24.608.24h2.608V138z"/></svg>

<svg width="320" height="232" viewBox="0 0 320 232" fill="none" xmlns="http://www.w3.org/2000/svg">
<path fill-rule="evenodd" clip-rule="evenodd" d="M165.118 103.222C164.757 103.641 164.804 104.272 165.222 104.633L167.062 106.218C167.428 106.534 167.649 106.726 167.79 106.875C167.649 107.024 167.428 107.216 167.062 107.532L165.222 109.118C164.804 109.478 164.757 110.11 165.118 110.528C165.478 110.946 166.11 110.993 166.528 110.633L168.368 109.047C168.382 109.034 168.397 109.022 168.411 109.009C168.76 108.709 169.095 108.42 169.334 108.15C169.596 107.854 169.875 107.437 169.875 106.875C169.875 106.313 169.596 105.896 169.334 105.6C169.095 105.33 168.76 105.042 168.411 104.741C168.397 104.728 168.382 104.716 168.368 104.703L166.528 103.118C166.11 102.757 165.478 102.804 165.118 103.222Z" fill="#5F43D0"/>
<path fill-rule="evenodd" clip-rule="evenodd" d="M162.632 103.222C162.993 103.641 162.946 104.272 162.528 104.633L160.688 106.218C160.322 106.534 160.101 106.726 159.96 106.875C160.101 107.024 160.322 107.216 160.688 107.532L162.528 109.118C162.946 109.478 162.993 110.11 162.632 110.528C162.272 110.946 161.641 110.993 161.222 110.633L159.382 109.047C159.368 109.034 159.353 109.022 159.339 109.009C158.99 108.709 158.655 108.42 158.416 108.15C158.154 107.854 157.875 107.437 157.875 106.875C157.875 106.313 158.154 105.896 158.416 105.6C158.655 105.33 158.99 105.042 159.339 104.741C159.353 104.728 159.368 104.716 159.382 104.703L161.222 103.118C161.641 102.757 162.272 102.804 162.632 103.222Z" fill="#5F43D0"/>
<path opacity="0.4" d="M154.812 110.522C155.794 110.625 155.357 110.625 156.898 110.625C157.437 110.625 157.875 110.187 157.875 109.648C157.875 109.108 157.437 108.67 156.898 108.67C155.289 108.67 155.883 108.669 155.013 108.578C154.159 108.489 153.676 108.322 153.318 108.069C153.076 107.898 152.864 107.697 152.686 107.473C152.431 107.15 152.261 106.717 152.169 105.931C152.074 105.121 152.072 104.064 152.072 102.54L152.072 99.64C152.072 99.373 152.072 98.7344 152.353 98.2623C152.526 97.9713 152.747 97.7282 152.975 97.6044C153.341 97.4048 153.762 97.2915 154.208 97.2915L155.249 97.328C155.629 97.3359 156.072 97.3239 156.5 97.2091C157.334 96.9857 157.986 96.3343 158.209 95.5003C158.324 95.0721 158.336 94.6286 158.328 94.2485L158.292 93.2081C158.292 92.7405 158.416 92.3333 158.633 91.9549C158.76 91.7343 158.981 91.5324 159.286 91.3551C159.748 91.0862 160.301 91.0837 160.639 91.0822C160.977 91.0807 161.334 91.0795 161.632 91.0795C163.466 91.0795 164.133 91.0935 164.637 91.2708C165.509 91.5783 166.175 92.2199 166.485 93.0053C166.563 93.2019 166.618 93.4603 166.647 93.9083C166.677 94.365 166.678 94.9479 166.678 95.7882V100.901C166.678 101.439 167.114 101.875 167.651 101.875C168.189 101.875 168.625 101.439 168.625 100.901V95.755C168.625 94.9558 168.625 94.3083 168.59 93.7797C168.554 93.2351 168.479 92.7494 168.296 92.2852C167.767 90.9459 166.658 89.9116 165.282 89.4266C164.423 89.1241 162.951 89.1244 161.396 89.125C158.556 89.1246 156.87 89.1244 155.487 89.6115C153.267 90.3937 151.493 92.0564 150.65 94.1925C150.369 94.9044 150.244 95.6691 150.184 96.586C150.125 97.4867 150.125 98.5993 150.125 100.018V102.601C150.125 104.049 150.125 105.222 150.235 106.159C150.349 107.133 150.592 107.97 151.162 108.689C151.457 109.062 151.806 109.391 152.196 109.667C152.941 110.193 153.802 110.417 154.812 110.522Z" fill="#5F43D0"/>
<path d="M85.1251 138V129.2H87.0771V130.976H87.6211L87.0291 131.456C87.0291 130.709 87.2478 130.123 87.6851 129.696C88.1331 129.259 88.7411 129.04 89.5091 129.04C90.4051 129.04 91.1038 129.328 91.6051 129.904C92.1065 130.48 92.3571 131.285 92.3571 132.32V133.152H90.3571V132.416C90.3571 131.872 90.2185 131.461 89.9411 131.184C89.6638 130.907 89.2691 130.768 88.7571 130.768C88.2345 130.768 87.8291 130.928 87.5411 131.248C87.2638 131.568 87.1251 132.021 87.1251 132.608V138H85.1251ZM93.1029 138L96.1749 133.456L93.3109 129.2H95.5669L96.9269 131.36C97.0122 131.488 97.0869 131.632 97.1509 131.792C97.2255 131.952 97.2842 132.08 97.3269 132.176C97.3695 132.08 97.4282 131.952 97.5029 131.792C97.5775 131.632 97.6522 131.488 97.7269 131.36L99.0869 129.2H101.359L98.4949 133.456L101.551 138H99.2789L97.7589 135.584C97.6735 135.445 97.5935 135.296 97.5189 135.136C97.4442 134.976 97.3802 134.848 97.3269 134.752C97.2842 134.848 97.2255 134.976 97.1509 135.136C97.0762 135.296 96.9962 135.445 96.9109 135.584L95.3749 138H93.1029ZM106.281 138.16C105.833 138.16 105.47 138.027 105.193 137.76C104.926 137.483 104.793 137.125 104.793 136.688C104.793 136.24 104.926 135.883 105.193 135.616C105.47 135.339 105.833 135.2 106.281 135.2C106.729 135.2 107.086 135.339 107.353 135.616C107.63 135.883 107.769 136.24 107.769 136.688C107.769 137.125 107.63 137.483 107.353 137.76C107.086 138.027 106.729 138.16 106.281 138.16ZM114.434 138.16C113.581 138.16 112.888 137.856 112.354 137.248C111.832 136.64 111.57 135.824 111.57 134.8V132.416C111.57 131.381 111.832 130.56 112.354 129.952C112.888 129.344 113.581 129.04 114.434 129.04C115.224 129.04 115.848 129.291 116.306 129.792C116.765 130.283 116.994 130.955 116.994 131.808L116.402 130.976H116.866L116.802 128.784V126.32H118.802V138H116.85V136.224H116.402L116.978 135.392C116.978 136.245 116.749 136.923 116.29 137.424C115.842 137.915 115.224 138.16 114.434 138.16ZM115.186 136.432C115.698 136.432 116.093 136.277 116.37 135.968C116.658 135.659 116.802 135.221 116.802 134.656V132.544C116.802 131.979 116.658 131.541 116.37 131.232C116.093 130.923 115.698 130.768 115.186 130.768C114.674 130.768 114.274 130.907 113.986 131.184C113.709 131.461 113.57 131.888 113.57 132.464V134.736C113.57 135.301 113.709 135.728 113.986 136.016C114.274 136.293 114.674 136.432 115.186 136.432ZM124.204 138.16C123.457 138.16 122.807 138.016 122.252 137.728C121.697 137.44 121.265 137.035 120.956 136.512C120.657 135.979 120.508 135.355 120.508 134.64V132.56C120.508 131.845 120.657 131.227 120.956 130.704C121.265 130.171 121.697 129.76 122.252 129.472C122.807 129.184 123.457 129.04 124.204 129.04C124.94 129.04 125.58 129.184 126.124 129.472C126.679 129.76 127.105 130.165 127.404 130.688C127.713 131.2 127.868 131.803 127.868 132.496V134.096H122.428V134.704C122.428 135.301 122.583 135.755 122.892 136.064C123.201 136.363 123.639 136.512 124.204 136.512C124.62 136.512 124.972 136.443 125.26 136.304C125.559 136.155 125.735 135.941 125.788 135.664H127.772C127.633 136.421 127.239 137.029 126.588 137.488C125.937 137.936 125.143 138.16 124.204 138.16ZM125.948 132.96V132.48C125.948 131.872 125.799 131.403 125.5 131.072C125.212 130.741 124.78 130.576 124.204 130.576C123.628 130.576 123.185 130.747 122.876 131.088C122.577 131.419 122.428 131.888 122.428 132.496V132.8L126.092 132.784L125.948 132.96ZM133.942 138.16C133.163 138.16 132.545 137.915 132.086 137.424C131.627 136.923 131.398 136.245 131.398 135.392L131.974 136.224H131.526V138H129.574V126.32H131.574V128.784L131.51 130.976H131.974L131.382 131.808C131.382 130.955 131.611 130.283 132.07 129.792C132.539 129.291 133.163 129.04 133.942 129.04C134.806 129.04 135.499 129.344 136.022 129.952C136.545 130.56 136.806 131.381 136.806 132.416V134.8C136.806 135.824 136.545 136.64 136.022 137.248C135.499 137.856 134.806 138.16 133.942 138.16ZM133.19 136.432C133.702 136.432 134.097 136.293 134.374 136.016C134.662 135.728 134.806 135.301 134.806 134.736V132.464C134.806 131.888 134.662 131.461 134.374 131.184C134.097 130.907 133.702 130.768 133.19 130.768C132.678 130.768 132.278 130.923 131.99 131.232C131.713 131.541 131.574 131.979 131.574 132.544V134.656C131.574 135.221 131.713 135.659 131.99 135.968C132.278 136.277 132.678 136.432 133.19 136.432ZM142.096 138.144C141.349 138.144 140.698 138 140.144 137.712C139.589 137.424 139.162 137.019 138.864 136.496C138.565 135.963 138.416 135.339 138.416 134.624V132.576C138.416 131.851 138.565 131.227 138.864 130.704C139.162 130.181 139.589 129.776 140.144 129.488C140.698 129.2 141.349 129.056 142.096 129.056C142.853 129.056 143.504 129.2 144.048 129.488C144.602 129.776 145.029 130.181 145.328 130.704C145.626 131.227 145.776 131.851 145.776 132.576V134.624C145.776 135.339 145.626 135.963 145.328 136.496C145.029 137.019 144.602 137.424 144.048 137.712C143.504 138 142.853 138.144 142.096 138.144ZM142.096 136.4C142.629 136.4 143.04 136.256 143.328 135.968C143.626 135.669 143.776 135.243 143.776 134.688V132.512C143.776 131.947 143.626 131.52 143.328 131.232C143.04 130.944 142.629 130.8 142.096 130.8C141.573 130.8 141.162 130.944 140.864 131.232C140.565 131.52 140.416 131.947 140.416 132.512V134.688C140.416 135.243 140.565 135.669 140.864 135.968C141.162 136.256 141.573 136.4 142.096 136.4ZM151.049 138.16C149.929 138.16 149.049 137.851 148.409 137.232C147.769 136.603 147.449 135.749 147.449 134.672V129.2H149.449V134.656C149.449 135.211 149.588 135.643 149.865 135.952C150.143 136.261 150.537 136.416 151.049 136.416C151.551 136.416 151.94 136.261 152.217 135.952C152.505 135.643 152.649 135.211 152.649 134.656V129.2H154.649V134.672C154.649 135.749 154.324 136.603 153.673 137.232C153.023 137.851 152.148 138.16 151.049 138.16ZM156.435 138V129.2H158.387V130.88H158.931L158.339 131.344C158.35 130.64 158.574 130.08 159.011 129.664C159.448 129.248 160.03 129.04 160.755 129.04C161.619 129.04 162.307 129.328 162.819 129.904C163.342 130.48 163.603 131.253 163.603 132.224V138H161.603V132.464C161.603 131.92 161.464 131.504 161.187 131.216C160.91 130.917 160.526 130.768 160.035 130.768C159.534 130.768 159.139 130.917 158.851 131.216C158.574 131.515 158.435 131.941 158.435 132.496V138H156.435ZM169.101 138.16C168.344 138.16 167.682 138.021 167.117 137.744C166.562 137.456 166.13 137.056 165.821 136.544C165.512 136.021 165.357 135.408 165.357 134.704V132.496C165.357 131.781 165.512 131.168 165.821 130.656C166.13 130.144 166.562 129.749 167.117 129.472C167.682 129.184 168.344 129.04 169.101 129.04C170.2 129.04 171.08 129.328 171.741 129.904C172.402 130.469 172.754 131.243 172.797 132.224H170.829C170.797 131.765 170.626 131.413 170.317 131.168C170.008 130.912 169.602 130.784 169.101 130.784C168.557 130.784 168.13 130.933 167.821 131.232C167.512 131.52 167.357 131.936 167.357 132.48V134.704C167.357 135.248 167.512 135.669 167.821 135.968C168.13 136.267 168.557 136.416 169.101 136.416C169.602 136.416 170.008 136.293 170.317 136.048C170.626 135.792 170.797 135.435 170.829 134.976H172.797C172.754 135.957 172.402 136.736 171.741 137.312C171.08 137.877 170.2 138.16 169.101 138.16ZM177.927 138.16C177.18 138.16 176.529 138.016 175.975 137.728C175.42 137.44 174.988 137.035 174.679 136.512C174.38 135.979 174.231 135.355 174.231 134.64V132.56C174.231 131.845 174.38 131.227 174.679 130.704C174.988 130.171 175.42 129.76 175.975 129.472C176.529 129.184 177.18 129.04 177.927 129.04C178.663 129.04 179.303 129.184 179.847 129.472C180.401 129.76 180.828 130.165 181.127 130.688C181.436 131.2 181.591 131.803 181.591 132.496V134.096H176.151V134.704C176.151 135.301 176.305 135.755 176.615 136.064C176.924 136.363 177.361 136.512 177.927 136.512C178.343 136.512 178.695 136.443 178.983 136.304C179.281 136.155 179.457 135.941 179.511 135.664H181.495C181.356 136.421 180.961 137.029 180.311 137.488C179.66 137.936 178.865 138.16 177.927 138.16ZM179.671 132.96V132.48C179.671 131.872 179.521 131.403 179.223 131.072C178.935 130.741 178.503 130.576 177.927 130.576C177.351 130.576 176.908 130.747 176.599 131.088C176.3 131.419 176.151 131.888 176.151 132.496V132.8L179.815 132.784L179.671 132.96ZM183.024 140.208V138.4H190.704V140.208H183.024ZM192.234 138V136.192H195.242V131.008H192.554V129.2H197.242V136.192H199.946V138H192.234ZM196.106 127.728C195.701 127.728 195.381 127.627 195.146 127.424C194.911 127.211 194.794 126.928 194.794 126.576C194.794 126.224 194.911 125.947 195.146 125.744C195.381 125.531 195.701 125.424 196.106 125.424C196.511 125.424 196.831 125.531 197.066 125.744C197.301 125.947 197.418 126.224 197.418 126.576C197.418 126.928 197.301 127.211 197.066 127.424C196.831 127.627 196.511 127.728 196.106 127.728ZM201.204 138V129.2H203.156V130.88H203.7L203.108 131.344C203.119 130.64 203.343 130.08 203.78 129.664C204.217 129.248 204.799 129.04 205.524 129.04C206.388 129.04 207.076 129.328 207.588 129.904C208.111 130.48 208.372 131.253 208.372 132.224V138H206.372V132.464C206.372 131.92 206.233 131.504 205.956 131.216C205.679 130.917 205.295 130.768 204.804 130.768C204.303 130.768 203.908 130.917 203.62 131.216C203.343 131.515 203.204 131.941 203.204 132.496V138H201.204ZM210.158 140.88V129.2H212.11V130.976H212.558L211.982 131.808C211.982 130.955 212.211 130.283 212.67 129.792C213.128 129.291 213.747 129.04 214.526 129.04C215.091 129.04 215.587 129.184 216.014 129.472C216.451 129.749 216.787 130.139 217.022 130.64C217.267 131.141 217.39 131.728 217.39 132.4V134.784C217.39 135.456 217.267 136.048 217.022 136.56C216.787 137.061 216.456 137.456 216.03 137.744C215.603 138.021 215.102 138.16 214.526 138.16C213.747 138.16 213.128 137.909 212.67 137.408C212.211 136.907 211.982 136.235 211.982 135.392L212.558 136.24H212.094L212.158 138.416V140.88H210.158ZM213.774 136.432C214.286 136.432 214.68 136.293 214.958 136.016C215.246 135.728 215.39 135.301 215.39 134.736V132.464C215.39 131.888 215.246 131.461 214.958 131.184C214.68 130.907 214.286 130.768 213.774 130.768C213.262 130.768 212.862 130.923 212.574 131.232C212.296 131.541 212.158 131.979 212.158 132.544V134.656C212.158 135.221 212.296 135.659 212.574 135.968C212.862 136.277 213.262 136.432 213.774 136.432ZM222.679 138.16C221.559 138.16 220.679 137.851 220.039 137.232C219.399 136.603 219.079 135.749 219.079 134.672V129.2H221.079V134.656C221.079 135.211 221.218 135.643 221.495 135.952C221.773 136.261 222.167 136.416 222.679 136.416C223.181 136.416 223.57 136.261 223.847 135.952C224.135 135.643 224.279 135.211 224.279 134.656V129.2H226.279V134.672C226.279 135.749 225.954 136.603 225.303 137.232C224.653 137.851 223.778 138.16 222.679 138.16ZM232.513 138C231.692 138 231.036 137.765 230.545 137.296C230.065 136.816 229.825 136.171 229.825 135.36V131.008H227.393V129.2H229.825V126.72H231.841V129.2H235.345V131.008H231.841V135.312C231.841 135.568 231.91 135.781 232.049 135.952C232.198 136.112 232.401 136.192 232.657 136.192H235.265V138H232.513Z" fill="#5F43D0"/>
</svg>
